X:50
T:score141
L:1/8
Q:1/4=96
M:3/4
I:linebreak $
K:D
!ff! !>!A3 d f2 | !>!a2 !>!d'2 z2 | (!>!f'2 e'd' c'b) | (!>!ba) .f.d A2 |$ !>!c3 e g2 | %5
 !>!a2 !>!e'2 z2 | !>!g'2 e'd' .a.c' | d'2 z2 z2 |] %8
